X:923
T:McCarthy's
R:reel
D:Angelina Carberry and Martin Quinn
Z:id:hn-reel-923
M:C|
L:1/8
K:Dmix
cB | AD~D2 FGAB | c2cB cAGc | AD~D2 FGAB | cAGE D2cB |
AD~D2 FGAB | c2cB cdeg | fage d^cAG |1 FAGE D2 :|2 FAGE D3A ||
|: d2fa afdf | g2fg edB^c | d2fa afdf | g2fd Beef |
gfe^c d2fd | d2fd e^cAg | fage d^cAG |1 FAGE D3A :|2 FAGE D2 ||

